material/.icons/material/yoga.svg

<svg xmlns="http://www.w3.org/2000/svg" viewBox="0 0 24 24"><path d="M13 2a2 2 0 100 4c1.11 0 2-.89 2-2a2 2 0 00-2-2M4 7v2h6v6l-5.07 5.07 1.41 1.43 6.72-6.73L17 17.13V21h2v-4.43c0-.36-.18-.68-.5-.86L15 13.6V9h6V7H4z"/></svg>

<?xml version="1.0" encoding="UTF-8"?><!DOCTYPE svg PUBLIC "-//W3C//DTD SVG 1.1//EN" "http://www.w3.org/Graphics/SVG/1.1/DTD/svg11.dtd"><svg xmlns="http://www.w3.org/2000/svg" xmlns:xlink="http://www.w3.org/1999/xlink" version="1.1" id="mdi-yoga" width="24" height="24" viewBox="0 0 24 24"><path d="M13 2C11.9 2 11 2.9 11 4C11 5.11 11.9 6 13 6C14.11 6 15 5.11 15 4C15 2.9 14.11 2 13 2M4 7V9H10V15L4.93 20.07L6.34 21.5L13.06 14.77L17 17.13V21H19V16.57C19 16.21 18.82 15.89 18.5 15.71L15 13.6V9H21V7H4Z" /></svg>
